packages/kaspersky-hexa-ui-icons/src/iconsSVGs/32/AntiStalking.svg

<svg xmlns="http://www.w3.org/2000/svg" width="32" height="32" fill="none" viewBox="0 0 32 32"><path fill="#000" fill-rule="evenodd" d="M26 4.5C26 5.8807 24.8807 7 23.5 7S21 5.8807 21 4.5 22.1193 2 23.5 2 26 3.1193 26 4.5M15.0008 2.0351C7.7352 2.5475 2 8.604 2 16c0 7.732 6.268 14 14 14 2.2253 0 4.3294-.5192 6.1977-1.4431a4.49 4.49 0 0 1-1.0011-1.7374C19.6242 27.5761 17.8616 28 16 28 9.3726 28 4 22.6274 4 16 4 9.709 8.841 4.5486 15.0011 4.041 15.5515 3.9956 16 3.5523 16 3s-.4483-1.0037-.9992-.9649M8 16c0-4.056 3.0185-7.407 6.9317-7.9293C15.5182 7.9924 16 8.4797 16 9.0714c0 .5129-.4181.921-.9249.9995C12.2005 10.5157 10 13.0008 10 16c0 3.3137 2.6863 6 6 6s6-2.6863 6-6a6 6 0 0 0-.2033-1.5542c-.1223-.4576.0727-.9612.5081-1.1478.5801-.2487 1.2608.0189 1.4239.6287A8 8 0 0 1 24 16c0 4.4183-3.5817 8-8 8s-8-3.5817-8-8m21.2494-4.5344c-.1882-.55-.8111-.7963-1.3454-.5673-.4812.2062-.7001.7627-.5326 1.2587C27.779 13.3635 28 14.6559 28 16c0 1.8616-.4239 3.6242-1.1805 5.1966a4.49 4.49 0 0 1 1.7374 1.0011C29.4808 20.3294 30 18.2253 30 16c0-1.587-.2641-3.1123-.7506-4.5344M18 16c0 1.1046-.8954 2-2 2s-2-.8954-2-2 .8954-2 2-2 2 .8954 2 2m7.7397 7.0113A2.5 2.5 0 0 0 25.5 23c-1.3807 0-2.5 1.1193-2.5 2.5q0 .1213.0113.2397c.0682.7163.4385 1.3444.9821 1.7555.419.3169.9408.5048 1.5066.5048 1.3807 0 2.5-1.1193 2.5-2.5a2.49 2.49 0 0 0-.5048-1.5066c-.4111-.5436-1.0392-.9139-1.7555-.9821"/></svg>

<svg width="32" height="32" viewBox="0 0 32 32" fill="none" xmlns="http://www.w3.org/2000/svg">
<path d="M16 3C16 2.44772 15.5508 1.99629 14.9999 2.03517C7.73465 2.54799 2 8.60429 2 16C2 23.732 8.26801 30 16 30C18.2253 30 20.3294 29.4808 22.1977 28.5569C21.7435 28.0666 21.3973 27.4749 21.1966 26.8195C19.6242 27.5761 17.8616 28 16 28C9.37258 28 4 22.6274 4 16C4 9.70923 8.84063 4.54906 15.0003 4.04105C15.5507 3.99565 16 3.55228 16 3Z" fill="black"/>
<path d="M27.3714 12.1569C27.2039 11.6609 27.4228 11.1045 27.904 10.8983C28.4383 10.6693 29.0612 10.9156 29.2494 11.4656C29.7359 12.8877 30 14.413 30 16C30 18.2253 29.4808 20.3294 28.5569 22.1977C28.0666 21.7435 27.4749 21.3973 26.8195 21.1966C27.5761 19.6242 28 17.8616 28 16C28 14.6559 27.779 13.3634 27.3714 12.1569Z" fill="black"/>
<path d="M8 16C8 11.9441 11.0182 8.59322 14.9312 8.07078C15.5177 7.99247 16 8.47969 16 9.07143C16 9.58426 15.5817 9.99245 15.0749 10.0709C12.2004 10.5157 10 13.0009 10 16C10 19.3137 12.6863 22 16 22C19.3137 22 22 19.3137 22 16C22 15.4625 21.9293 14.9415 21.7967 14.4458C21.6744 13.9882 21.8694 13.4846 22.3048 13.298C22.8849 13.0493 23.5656 13.3169 23.7287 13.9266C23.9057 14.5879 24 15.2829 24 16C24 20.4183 20.4183 24 16 24C11.5817 24 8 20.4183 8 16Z" fill="black"/>
<path d="M25.5 23C25.5809 23 25.6608 23.0038 25.7397 23.0113C26.456 23.0795 27.0841 23.4498 27.4952 23.9934C27.8121 24.4124 28 24.9342 28 25.5C28 26.8807 26.8807 28 25.5 28C24.9342 28 24.4124 27.8121 23.9934 27.4952C23.4498 27.0841 23.0795 26.456 23.0113 25.7397C23.0038 25.6608 23 25.5809 23 25.5C23 24.1193 24.1193 23 25.5 23Z" fill="black"/>
<path d="M26 4.5C26 5.88071 24.8807 7 23.5 7C22.1193 7 21 5.88071 21 4.5C21 3.11929 22.1193 2 23.5 2C24.8807 2 26 3.11929 26 4.5Z" fill="black"/>
<path d="M16 18C17.1046 18 18 17.1046 18 16C18 14.8954 17.1046 14 16 14C14.8954 14 14 14.8954 14 16C14 17.1046 14.8954 18 16 18Z" fill="black"/>
</svg>
